i18n-demo-complete/public/noun-language-4114572.svg

<?xml version="1.0" encoding="UTF-8"?>
<svg width="1200pt" height="1200pt" version="1.1" viewBox="0 0 1200 1200" xmlns="http://www.w3.org/2000/svg">
 <path d="m962.28 237.72c-96.766-96.777-225.42-150.06-362.28-150.06s-265.52 53.281-362.28 150.06c-199.77 199.75-199.77 524.8 0 724.57 96.766 96.766 225.42 150.05 362.28 150.05s265.52-53.297 362.28-150.06c199.79-199.76 199.79-524.8 0-724.56zm16.875 580.19h-138.25c15.09-58.98 24.121-124.73 25.77-194.67h169.83c-3.5703 67.547-22.711 134.37-57.344 194.67zm-316.25 214.93c-13.336 1.9062-26.805 3.2383-40.41 3.9297v-173.85h156.7c-28.559 79.695-69.402 140.6-116.29 169.92zm-242.11-169.93h156.7v173.85c-13.59-0.69141-27.074-2.0117-40.41-3.9297-46.891-29.312-87.734-90.215-116.29-169.92zm-257.28-239.66h169.83c1.6484 69.93 10.695 135.69 25.77 194.67h-138.25c-34.648-60.316-53.789-127.14-57.344-194.67zm67.785-258.38h132.48c-17.984 63.703-28.754 135.98-30.465 213.38h-169.91c3.6758-74.551 26.355-148.27 67.891-213.38zm305.79-197.71c13.336-1.9062 26.805-3.2383 40.41-3.9297v156.64h-150.23c28.113-71.25 66.363-125.54 109.82-152.71zm235.64 152.71h-150.23v-156.63c13.59 0.69141 27.074 2.0117 40.41 3.9297 43.453 27.164 81.703 81.449 109.82 152.7zm15.719 45c19.352 63.121 31.336 136.05 33.238 213.38h-199.18v-213.38zm-210.95 0v213.38h-199.18c1.9062-77.324 13.891-150.25 33.238-213.38zm-199.16 258.38h199.16v194.67h-170.95c-16.293-58.621-26.371-124.83-28.203-194.67zm244.16 194.66v-194.66h199.16c-1.8281 69.855-11.926 136.05-28.199 194.67h-170.96zm244.18-239.66c-1.7109-77.387-12.48-149.67-30.465-213.38h132.48c41.52 65.102 64.215 138.82 67.891 213.38zm69.078-258.38h-113.89c-18.375-51-41.762-94.934-68.91-129.75 58.004 21.613 111.23 55.531 156.3 100.61 9.3867 9.3906 18.164 19.156 26.504 29.145zm-488.71-129.75c-27.148 34.816-50.535 78.75-68.91 129.75h-113.89c8.3555-9.9883 17.129-19.754 26.504-29.129 45.074-45.074 98.293-79.008 156.3-100.62zm-196.47 672.78h121.68c19.172 58.32 44.641 108.3 74.789 146.95-58.004-21.613-111.23-55.531-156.3-100.61-14.684-14.684-28.016-30.207-40.168-46.348zm502.38 146.97c30.148-38.656 55.621-88.637 74.789-146.95h121.68c-12.148 16.141-25.484 31.664-40.172 46.352-45.07 45.055-98.289 78.988-156.3 100.6z"/>
</svg>

<?xml version="1.0" encoding="UTF-8" standalone="no"?>
<!DOCTYPE svg PUBLIC "-//W3C//DTD SVG 1.1//EN" "http://www.w3.org/Graphics/SVG/1.1/DTD/svg11.dtd">
<svg width="100%" height="100%" viewBox="0 0 1200 1200" version="1.1" xmlns="http://www.w3.org/2000/svg" xmlns:xlink="http://www.w3.org/1999/xlink" xml:space="preserve" xmlns:serif="http://www.serif.com/" style="fill-rule:evenodd;clip-rule:evenodd;stroke-linejoin:round;stroke-miterlimit:2;">
    <path d="M962.28,237.72C865.514,140.943 736.86,87.66 600,87.66C463.14,87.66 334.48,140.941 237.72,237.72C37.95,437.47 37.95,762.52 237.72,962.29C334.486,1059.06 463.14,1112.34 600,1112.34C736.86,1112.34 865.52,1059.04 962.28,962.28C1162.07,762.52 1162.07,437.48 962.28,237.72ZM979.161,817.91L840.905,817.91C855.995,758.93 865.026,693.18 866.675,623.24L1036.51,623.24C1032.93,690.787 1013.79,757.61 979.161,817.91ZM662.905,1032.84C649.569,1034.75 636.1,1036.08 622.495,1036.77L622.495,862.92L779.195,862.92C750.636,942.615 709.793,1003.52 662.905,1032.84L662.905,1032.84ZM420.795,862.91L577.495,862.91L577.495,1036.76C563.905,1036.07 550.421,1034.75 537.085,1032.83C490.194,1003.52 449.351,942.615 420.795,862.91L420.795,862.91ZM163.515,623.25L333.345,623.25C334.993,693.18 344.04,758.94 359.115,817.92L220.865,817.92C186.217,757.604 167.076,690.78 163.521,623.25L163.515,623.25ZM231.296,364.87L363.78,364.87C345.796,428.573 335.026,500.85 333.315,578.25L163.405,578.25C167.081,503.699 189.76,429.98 231.296,364.87ZM537.09,167.16C550.426,165.254 563.895,163.922 577.5,163.23L577.5,319.87L427.27,319.87C455.383,248.62 493.633,194.33 537.09,167.16L537.09,167.16ZM772.73,319.87L622.5,319.87L622.5,163.24C636.09,163.931 649.574,165.252 662.91,167.17C706.363,194.334 744.613,248.619 772.73,319.87L772.73,319.87ZM788.449,364.87C807.801,427.991 819.785,500.92 821.687,578.25L622.507,578.25L622.507,364.87L788.449,364.87ZM577.499,364.87L577.499,578.25L378.319,578.25C380.225,500.926 392.21,428 411.557,364.87L577.499,364.87ZM378.339,623.25L577.499,623.25L577.499,817.92L406.549,817.92C390.256,759.299 380.178,693.09 378.346,623.25L378.339,623.25ZM622.499,817.91L622.499,623.25L821.659,623.25C819.831,693.105 809.733,759.3 793.46,817.92L622.5,817.92L622.499,817.91ZM866.679,578.25C864.968,500.863 854.199,428.58 836.214,364.87L968.694,364.87C1010.21,429.972 1032.91,503.69 1036.59,578.25L866.679,578.25ZM935.757,319.87L821.867,319.87C803.492,268.87 780.105,224.936 752.957,190.12C810.961,211.733 864.187,245.651 909.257,290.73C918.644,300.121 927.421,309.886 935.761,319.875L935.757,319.87ZM447.047,190.12C419.899,224.936 396.512,268.87 378.137,319.87L264.247,319.87C272.603,309.882 281.376,300.116 290.751,290.741C335.825,245.667 389.044,211.733 447.051,190.121L447.047,190.12ZM250.577,862.9L372.257,862.9C391.429,921.22 416.898,971.2 447.046,1009.85C389.042,988.237 335.816,954.319 290.746,909.24C276.062,894.556 262.73,879.033 250.578,862.892L250.577,862.9ZM752.957,1009.87C783.105,971.214 808.578,921.233 827.746,862.92L949.426,862.92C937.278,879.061 923.942,894.584 909.254,909.272C864.184,954.327 810.965,988.26 752.954,1009.87L752.957,1009.87Z" style="fill:rgb(253,230,138);fill-rule:nonzero;"/>
</svg>
